X:527
T:Reel 527
M:4/4
K:Amaj
L:1/8
ED|C>A, (3A,A,A, CA,EA,|C>A, (3A,A,A, A2GA|BB, (3B,B,B, BDAF|CEFE FCDF (3CB,B, |C>A, (3A,A,A, CA,EA,|CA,A,C AFED|CB,CB, AGAB||cABG AFED|CA,CA, E,A,CE|CA,CA, DFFD|CA,EA, CA,CA,|DCB,C DFED|CA,CA, EA,CA,|CA,EA, DFDB,|CEAE F2EC|B,A,G,A, B,CDB,|CEAE  (3EDE AE|CEAE CEAE|CEAE CEFE|DCB,A, G,B,B,D|CEAE EEAECE|CEAG FEFC|DEFG AFEC|B,A,G,A, B,CDB,|
